X:1
T: Colonel McDowell's March
T: DUETTS For Two Flutes
M: C
B: James Campbell's Collection 1798
Z: source from Highland Music Trust, chords by Gary Whaley
L: 1/8
K:D
V:T1
A>A [|: "D" d4 {f}e>d"A"e>f | "D" d2 d>d d2 A>A | f4 {a}"G"g>e"A"f>g | "D" f2 f>f f2 a2 |
|"G" {^a}b2 (b2b)c'd'b | "D/F" {=g}a2 a4 "E7" (3(bc'd') | "A" c'b"E7"d'b "A" a2 "E7" =g2 | "A" a2 a>a a2 :|]
A>A [|: ~a2>f2 "Em/B"bagf | "Em" ~a2>e2 "D/A" agfe | "D" fdgf ba"Em/G"gf | "A" [ecA]2 [ecA]>[ecA] [ecA]2 A>A |
|"D" d2>A2 "A/C" e2>A2 | "D" fgab abc'd'/b/ |"D/F" a>g/a/"G"bg "D/A" f2 "A" e2 | "D" d2 d>d d2 :|]
V:T2
A>A [|: F4 {A}G>FG>A | F2 F>F F2 z2 |d4 {f}e>def | d2 d>d d2 f2 |
| {f}g2 g2 g>abg | f2 f4 ^g2 |a2 fd c2 TB>B | A2 A>A A2  :|]
A>A [|: f2>d2 gfe^d | e2>A2 fedc |dfed gfed| c2 c>c c2 z2|
|z2 D>F A2 c>e | defg fgef | Tf>e/f/ge d2 A2 | F2 F>F F2 :|]